X: 110
T:Twa Heids are better than Yin
R:song
Z:added by Alf Warnock - alf0@rogers.com - www.alfwarnock.info/alfs
M:3/4
L:1/8
K:D
A2|"D"A3B A2|F2 E2 D2|"G"E2 D2 B,2|"D"D4 A,2|D2 D2 F2|A2 F2 D2|"A7"E6-|E4 A2|
"D"A3B A2|F2 E2 D2|"G"E2 D2 B,2|"D"D4 A,2|"D"D2 D2 F2|"A7"G2 F2 E2|"D"D6-|D4 D2|
"A7"C2 C2 D2|E4 E2|"D"D2 D2 F2|A4 A2|A2 A2 F2|D2 G2 F2|"A7"E6-|E4 A2|
"D"A3B A2|F2 E2 D2|"G"E2 D2 B,2|"D"D4 A,2|D2 D2 F2|"A7"G2 F2 E2|"D"D6|]

